src/assets/img/exchanges/zenlink-logo.svg

<svg viewBox="0 0 119 35" fill="none" xmlns="http://www.w3.org/2000/svg">
<path d="M14.1203 0.300185C14.8137 -0.100062 15.6651 -0.100062 16.3584 0.300185L29.3581 7.87809C30.0518 8.27927 30.4785 9.02567 30.4756 9.83264V24.9917C30.4823 25.793 30.0679 26.538 29.3866 26.9494L16.3711 34.5241C15.6795 34.931 14.8246 34.931 14.133 34.5241L1.11748 26.9494C0.425196 26.5452 -0.000791739 25.7989 -6.73363e-06 24.9917V9.83264C-0.00556519 9.02832 0.415957 8.28254 1.10478 7.87809L14.1203 0.300185ZM10.2028 8.01173L4.61781 11.2911C4.45433 11.3874 4.35365 11.5645 4.35365 11.756V23.8547C4.35314 24.0714 4.46709 24.2717 4.6524 24.3801L14.8759 30.3657C15.1225 30.5122 15.428 30.5122 15.6746 30.3657L20.942 27.2965C21.0044 27.2593 21.0427 27.1915 21.0427 27.1182C21.0427 27.0449 21.0044 26.9771 20.942 26.9399L10.6462 20.9287C10.5614 20.8778 10.5117 20.7833 10.5173 20.6836V8.19322C10.5178 8.11724 10.4777 8.0469 10.4125 8.00928C10.3473 7.97165 10.2671 7.97259 10.2028 8.01173Z" fill="#F9F9F9"/>
<path d="M37.0061 22.2714L43.7499 13.2898H37.3357V10.8841H47.0624V13.2866L40.4208 22.2714H47.1646V24.6707H37.0061V22.2714Z" fill="#F9F9F9"/>
<path d="M58.4487 23.3801C58.241 23.5555 58.0127 23.7077 57.7683 23.8337C57.4548 23.9959 57.1282 24.1341 56.7917 24.2473C56.3922 24.3819 55.9817 24.4852 55.5643 24.556C55.0947 24.6345 54.6185 24.6727 54.1417 24.6702C53.3517 24.6822 52.5654 24.5653 51.8172 24.3245C50.508 23.9057 49.4699 22.9465 48.9947 21.7165C48.7328 21.0344 48.6048 20.3127 48.6171 19.5869C48.6007 18.8266 48.7458 18.0709 49.0435 17.3647C49.3055 16.7601 49.7045 16.2174 50.2123 15.7752C50.7156 15.348 51.3063 15.0234 51.9474 14.8215C52.6436 14.6092 53.3714 14.5049 54.1026 14.5129C54.6396 14.5156 55.1743 14.5809 55.6945 14.7073C56.2401 14.8324 56.7545 15.0578 57.2084 15.3709C57.6834 15.7017 58.0694 16.1343 58.3348 16.6332C58.6494 17.2564 58.7991 17.9429 58.771 18.6332C58.7668 19.2348 58.6992 19.8345 58.5692 20.4233H51.2573C51.2577 20.7863 51.3528 21.1436 51.534 21.4634C51.6965 21.7409 51.925 21.9787 52.2014 22.1578C52.4929 22.3428 52.8171 22.4766 53.1585 22.5529C53.5319 22.6361 53.9144 22.6766 54.2979 22.6733C54.9766 22.6922 55.6536 22.6014 56.3001 22.4048C56.7616 22.2576 57.1923 22.0351 57.573 21.7474L58.4487 23.3801ZM54.0603 16.5005C53.7227 16.4985 53.3868 16.5454 53.0641 16.6394C52.7619 16.7266 52.4778 16.8623 52.2242 17.0406C51.9721 17.2176 51.7605 17.4412 51.6024 17.698C51.4371 17.9675 51.3402 18.2697 51.3191 18.5807H56.3164C56.3781 18.0025 56.1578 17.4292 55.7184 17.024C55.2789 16.6187 54.6683 16.426 54.0603 16.5005Z" fill="#F9F9F9"/>
<path d="M60.2256 14.802H63.7665L64.0681 16.1024H64.1492C64.5052 15.6399 64.9613 15.2596 65.4851 14.9887C66.1267 14.658 66.8448 14.4945 67.5701 14.514C68.0458 14.5109 68.5192 14.5782 68.9742 14.7134C69.3984 14.8352 69.7843 15.0593 70.0961 15.3652C70.4374 15.715 70.6905 16.1374 70.8354 16.5992C71.0325 17.2218 71.1245 17.8716 71.1078 18.523V24.671H68.4781V19.0641C68.4781 18.2604 68.2932 17.6814 67.9236 17.327C67.5461 16.9715 67.0374 16.7798 66.513 16.7954C66.0236 16.793 65.5459 16.9414 65.1479 17.2194C64.7586 17.4742 64.464 17.8449 64.3081 18.2762V24.671H61.6815V16.9726H60.2256V14.802Z" fill="#F9F9F9"/>
<path d="M73.2866 10.1588H77.5677V19.5489C77.5677 20.5915 77.6945 21.317 77.9481 21.7253C78.2185 22.1395 78.69 22.3728 79.1796 22.3346C79.526 22.3432 79.8717 22.2981 80.2047 22.201C80.4856 22.1075 80.7549 21.9818 81.0074 21.8263L81.9939 23.6542C81.765 23.804 81.5393 23.9441 81.3105 24.0712C81.0791 24.2021 80.8363 24.3112 80.5851 24.397C80.3134 24.4898 80.034 24.5574 79.7502 24.599C79.4141 24.6499 79.0745 24.6739 78.7347 24.6707C77.4731 24.6707 76.5286 24.3449 75.901 23.6933C75.2563 23.0416 74.9565 22.1196 74.9565 20.9271V12.3939H73.2866V10.1588Z" fill="#F9F9F9"/>
<path d="M84.8963 22.4367H88.2872V16.7468H84.8963V14.5125H90.7811V22.4367H94.3292V24.671H84.8963V22.4367Z" fill="#F9F9F9"/>
<path d="M95.7804 14.8021H99.3181L99.6229 16.1025H99.704C100.059 15.6392 100.516 15.2588 101.04 14.9888C101.68 14.6574 102.397 14.4939 103.122 14.5142C103.598 14.5111 104.073 14.5783 104.529 14.7135C104.953 14.836 105.339 15.0601 105.651 15.3653C105.99 15.7167 106.243 16.1386 106.39 16.5993C106.587 17.2219 106.679 17.8717 106.663 18.5231V24.671H104.033V19.0642C104.033 18.2605 103.847 17.6814 103.475 17.3271C103.101 16.971 102.594 16.779 102.071 16.7955C101.582 16.7926 101.104 16.9411 100.706 17.2195C100.316 17.4734 100.021 17.8444 99.8661 18.2763V24.671H97.2364V16.9727H95.7804V14.8021Z" fill="#F9F9F9"/>
<path d="M107.39 10.8841H111.628V18.7419H112.227L115.506 14.8241H118.567L114.528 19.3133L117.141 22.505H119V24.6707H115.766L112.333 20.5919H111.628V24.6707H109.028V13.0498H107.39V10.8841Z" fill="#F9F9F9"/>
<path d="M88.8872 13.0607C89.889 13.0607 90.7012 12.2485 90.7012 11.2467C90.7012 10.2448 89.889 9.43264 88.8872 9.43264C87.8853 9.43264 87.0731 10.2448 87.0731 11.2467C87.0731 12.2485 87.8853 13.0607 88.8872 13.0607Z" fill="#CC2E79"/>
</svg>

<svg viewBox="0 0 119 35" fill="none" xmlns="http://www.w3.org/2000/svg"><path d="M14.12.3c.694-.4 1.545-.4 2.238 0l13 7.578a2.247 2.247 0 0 1 1.118 1.955v15.159a2.264 2.264 0 0 1-1.09 1.957l-13.015 7.575a2.204 2.204 0 0 1-2.238 0L1.117 26.95A2.263 2.263 0 0 1 0 24.992V9.832a2.247 2.247 0 0 1 1.105-1.954L14.12.3Zm-3.917 7.712-5.585 3.28a.54.54 0 0 0-.264.464v12.099c0 .216.113.417.298.525l10.224 5.986a.78.78 0 0 0 .799 0l5.267-3.07a.207.207 0 0 0 0-.356l-10.296-6.011a.268.268 0 0 1-.129-.245V8.194a.21.21 0 0 0-.104-.185.205.205 0 0 0-.21.003ZM37.006 22.271l6.744-8.981h-6.414v-2.406h9.726v2.403l-6.641 8.984h6.744v2.4H37.006v-2.4ZM58.449 23.38a3.638 3.638 0 0 1-.68.454c-.314.162-.64.3-.977.413a8.073 8.073 0 0 1-2.65.423 7.234 7.234 0 0 1-2.325-.346c-1.309-.418-2.347-1.378-2.822-2.608a5.669 5.669 0 0 1-.378-2.13 5.415 5.415 0 0 1 .427-2.221 4.465 4.465 0 0 1 1.168-1.59 5.002 5.002 0 0 1 1.735-.954 7.126 7.126 0 0 1 2.156-.308 6.892 6.892 0 0 1 1.591.194c.546.125 1.06.35 1.514.664.475.33.861.763 1.127 1.262.314.623.464 1.31.436 2a8.579 8.579 0 0 1-.202 1.79h-7.312c0 .363.096.72.277 1.04.163.278.391.516.667.695.292.185.616.319.957.395.374.083.756.124 1.14.12a6.285 6.285 0 0 0 2.002-.268c.462-.147.892-.37 1.273-.658l.876 1.633ZM54.06 16.5a3.49 3.49 0 0 0-.996.14 2.82 2.82 0 0 0-.84.4 2.24 2.24 0 0 0-.622.658c-.165.27-.262.572-.283.883h4.997a1.849 1.849 0 0 0-.598-1.557 2.078 2.078 0 0 0-1.658-.524ZM60.226 14.802h3.54l.302 1.3h.081a4.008 4.008 0 0 1 1.336-1.113 4.3 4.3 0 0 1 2.085-.475 4.82 4.82 0 0 1 1.404.2c.424.121.81.345 1.122.651.341.35.594.772.74 1.234.197.623.288 1.273.272 1.924v6.148h-2.63v-5.607c0-.804-.185-1.383-.554-1.737a1.973 1.973 0 0 0-1.411-.532 2.365 2.365 0 0 0-1.365.424c-.39.255-.684.626-.84 1.057v6.395h-2.627v-7.698h-1.455v-2.171ZM73.287 10.159h4.28v9.39c0 1.043.128 1.768.381 2.176.27.415.742.648 1.232.61.346.008.692-.037 1.025-.134.28-.093.55-.22.802-.375l.987 1.828c-.229.15-.455.29-.683.417-.232.131-.475.24-.726.326-.272.093-.551.16-.835.202a6.38 6.38 0 0 1-1.015.072c-1.262 0-2.206-.326-2.834-.978-.645-.651-.944-1.573-.944-2.766v-8.533h-1.67v-2.235ZM84.896 22.437h3.391v-5.69h-3.39v-2.235h5.884v7.925h3.548v2.234h-9.433v-2.234ZM95.78 14.802h3.538l.305 1.3h.081a3.977 3.977 0 0 1 1.336-1.113 4.27 4.27 0 0 1 2.082-.475c.476-.003.951.064 1.407.2.424.122.81.346 1.122.651.339.352.592.774.739 1.234.197.623.289 1.273.273 1.924v6.148h-2.63v-5.607c0-.803-.186-1.383-.558-1.737a1.948 1.948 0 0 0-1.404-.532 2.359 2.359 0 0 0-1.365.424c-.39.254-.685.625-.84 1.057v6.395h-2.63v-7.698H95.78v-2.17ZM107.39 10.884h4.238v7.858h.599l3.279-3.918h3.061l-4.039 4.49 2.613 3.191H119v2.166h-3.234l-3.433-4.08h-.705v4.08h-2.6V13.05h-1.638v-2.166Z" fill="#F9F9F9"/><path d="M88.887 13.06a1.814 1.814 0 1 0 0-3.627 1.814 1.814 0 0 0 0 3.628Z" fill="#CC2E79"/></svg>
